X: 13960
T: Franc A'Phoill
R: jig
M: 6/8
K: Dmixolydian
|:{Ac}A2D {Bd}B{A}BD|ABG FED|{Ac}A2D {Bd}B2D|GcG {A}GFE|
{Ac}A2D {Bd}B{A}BD|ABG FE(C|C)EG cBA|GcG {A}GFE:|
|:dfa afd|dfd {^cd}cAG|[F2A,2] A {cd}cAF|GAG {A}GFE|
dfa afa|geg fdf|[M:9/8] e2A [F2A,2]A {d}cBA|[M:6/8] GAG {A}GFE:|
|:dfd dfd|dfd ^cAF|dfd dAF|GEF GFE|
dfd ^cec|B^cd AFD|CEG cBA|GcG {A} GFE:|
|:dDD cDD|BDD ADD|dDD {cd}cDD|GcG {A}GFE|
dDD cDD|BDD ADD|CEG cBA|GcG {A}GFE:|

